X:1
T:Title
%%score { ( 1 3 ) | ( 2 4 ) }
L:1/8
Q:1/4=100
M:4/4
K:Eb
V:1 treble nm="Grand Piano"
V:3 treble 
V:2 bass 
V:4 bass 
V:1
 G2 G>F E>F G>[FA] | [GB]4 G2 z2 | G2 G>F G2 B>G | [DF]4 z4 | G2 G>F E>F G>[B,FA] | %5
w: Lessur * * * * * *|||||
 [EGB]2 [EAc]4 [EG]A | [B,GB]2 [B,FA][B,EG] [B,EG]2 [A,DF]2 |[M:3/4] [G,E]4 z2 |[M:1/4] [DB][Fd] | %9
w: ||||
[M:4/4] [Ge]2 [Ge]>[Ge] [Bd]2 [Ac]>[Ac] | [GB]4 G2 E>F | G2 G>F G2 B>G |[M:3/4] [DF]4 z2 | %13
w: ||||
[M:1/4] [DB][Fd] |[M:4/4] [Ge]2 [Ge]>[Ge] [Bd]2 [Ac]>[Ac] | [GB]4 G2 E>F | G2 G>F G2 [DF]>[DF] | %17
w: ||||
[M:3/4] E6 |[M:1/4] Bd |[M:4/4] [Ge]2 [Ge]>[Ge] [Bd]2 [Ac]>[Ac] | [GB]4 G2 E>F | G2 G>F G2 B>G | %22
w: |||||
[M:3/4] [DF]4 z2 |[M:1/4] [DB][Fd] |[M:4/4] [Ge]2 [Ge]>[Ge] [Bd]2 [Ac]>[Ac] | [GB]4 G2 E>F | %26
w: ||||
 G2 G>F G2 [DF]>[DF] |[M:3/4] E6 |] %28
w: ||
V:2
 [E,B,E]2 [E,B,E]>[E,A,E] [E,G,]>[E,A,E] [E,B,E]>[E,B,] | [E,E]4 [E,E]2 z2 | %2
 [E,B,E]2 [E,B,E]>[D,B,] [E,B,E]2 [E,G,E]>[E,B,E] | [B,,B,]4 z4 | %4
 [E,B,E]2 [E,B,E]>[E,A,E] [E,G,]>[E,A,E] [E,B,E]>E, | E,2 A,,4 z F | E,2 D,E, B,,2 B,,2 | %7
[M:3/4] E,4 z2 |[M:1/4] [D,B,]2 |[M:4/4] [E,B,]2 [E,B,]>[E,B,] [E,E]2 [E,E]>[E,E] | %10
 [E,E]4 [E,B,E]2 [E,G,]>[E,A,E] | [E,B,E]2 [E,B,E]>[D,B,] [E,B,E]2 [E,G,E]>[E,B,E] | %12
[M:3/4] [B,,B,]4 z2 |[M:1/4] [B,,B,]2 |[M:4/4] [E,B,]2 [E,B,]>[E,B,] [E,E]2 [E,E]>[E,E] | %15
 [E,E]4 [E,B,E]2 [E,G,]>[E,A,E] | [E,B,E]2 [E,B,E]>[A,CE] [B,E]2 [B,,A,]>[B,,A,] |[M:3/4] [E,G,]6 | %18
[M:1/4] DF |[M:4/4] [E,B,]2 [E,B,]>[E,B,] [E,E]2 [E,E]>[E,E] | [E,E]4 [E,B,E]2 [E,G,]>[E,A,E] | %21
 [E,B,E]2 [E,B,E]>[D,B,] [E,B,E]2 [E,G,E]>[E,B,E] |[M:3/4] [B,,B,]4 z2 |[M:1/4] [B,,B,]2 | %24
[M:4/4] [E,B,]2 [E,B,]>[E,B,] [E,E]2 [E,E]>[E,E] | [E,E]4 [E,B,E]2 [E,G,]>[E,A,E] | %26
 [E,B,E]2 [E,B,E]>[A,CE] [B,E]2 [B,,A,]>[B,,A,] |[M:3/4] [E,G,]6 |] %28
V:3
 x8 | x8 | x8 | x8 | x8 | z4 z2 B,2 | x8 |[M:3/4] x6 |[M:1/4] x2 |[M:4/4] x8 | x8 | x8 | %12
[M:3/4] x6 |[M:1/4] x2 |[M:4/4] x8 | x8 | x8 |[M:3/4] x6 |[M:1/4] x2 |[M:4/4] x8 | x8 | x8 | %22
[M:3/4] x6 |[M:1/4] x2 |[M:4/4] x8 | x8 | x8 |[M:3/4] x6 |] %28
V:4
 x8 | x8 | x8 | x8 | x8 | z4 z2 E,2 | x8 |[M:3/4] x6 |[M:1/4] x2 |[M:4/4] x8 | x8 | x8 | %12
[M:3/4] x6 |[M:1/4] x2 |[M:4/4] x8 | x8 | x8 |[M:3/4] x6 |[M:1/4] [D,B,]2 |[M:4/4] x8 | x8 | x8 | %22
[M:3/4] x6 |[M:1/4] x2 |[M:4/4] x8 | x8 | x8 |[M:3/4] x6 |] %28

